X:1
T:The wind that shakes the barley
R:reel
O:Irlanda
M:4/4
K:D
"D"A2AB AFED|"G"B2BA BcdB|"D"A2AB AFED|1"G"gfed "A"BcdB:|2"G"gfed "A"Bcde|
|"D"f2fd "G"g2ge|"D"f2fd "A"Bcde|"D"f2fd "G"g2ge|"D"afed "A"Bcde|"D"f2fd "G"g2ge|"D"f2fd "A"Bcde|"D"defg afbf|"G"gfed "A"BcdB|

